X:1
T:Title
%%score { ( 1 4 ) | ( 2 3 ) }
L:1/8
Q:1/4=100
M:4/4
K:D
V:1 bass nm="Grand Piano"
V:4 bass 
V:2 bass 
V:3 bass 
V:1
 [F,D]3 [CE][K:treble] [A,DF]3 [CE] | [F,D][CE][K:treble][DF][GB] [DFA]4 | [Bd]3 B [FA]3 F | %3
w: D.~D.~Ford * * *|||
 [DF]EDF .A,2 z2 | [F,D]3 [CE][K:treble] [A,DF]3 E | z4 [FA]4 | [Bd]3 [GB] [FA]3 [B,EG] | %7
w: ||||
 [DF]2[K:bass] [G,CE]2 [F,D]4 | [FA]3 [FA] [=F^G][^FA][=GB][GA] | [Fd]2 z2 z4 | %10
w: |||
 [EA]3 [^GB] [Ac]A[Ac][Ee] | [EB]2 c2 A2 z2 | [Fd]3 [Gd] [Fd]AFD | %13
w: |||
 [DG]2[K:bass] [DA]2[K:treble] z4 | [FA]2 Bc [Fd] F2 [B,EG] | [DF]2[K:bass] [G,CE]2 [F,D]4 |] %16
w: |||
V:2
 D,2 z G, D,2 z G, | z G, z C D,2 A,,2 | G,,2 z G D,2 z E | z CB,D z =G,F,E, | %4
 D,2 z G, D,2 z [G,C] | B,CA,,G,, D,2 F,2 | G,,A,,B,,C, D,E,F,G, | A,2 A,,2 D,4 | %8
 [D,D]3 [D,D] [D,D]2 [D,C]2 | [D,D]D,[D,A,D][D,D] [D,D]4 | [E,C]3 [E,D] [E,C]2 [E,A,]2 | %11
 [E,A,]E,E-[E,E] [A,C]2 [F,A,D][E,A,] | [D,A,]3 [D,B,] z F[D,A,D][=C,F,] | %13
 .[B,,G,]2 .[A,,F,]2 [G,,G,]4 | [D,A,]2[K:treble] G-[E,A,G][K:bass] z D2 G, | A,2 A,,2 D,4 |] %16
V:3
 z2 A,,2 z2 A,,2 | D,2 [A,,A,]2 z4 | z2 B,,2 z2 C,2 | [B,,F,]2 [E,^G,]2 A,,2 z2 | z2 A,,2 z2 A,,2 | %5
 [B,,F,]2 z2 z4 | x8 | x8 | x8 | x8 | x8 | z2 .[E,^G,]2 z4 | z4 [D,A,]2 z2 | x8 | %14
 z2[K:treble] .G,2[K:bass] [D,A,]4 | x8 |] %16
V:4
 x4[K:treble] x4 | x2[K:treble] x6 | x8 | z4 [CE]4 | x4[K:treble] x4 | DE[DF][GB] z2 =C2 | x8 | %7
 x2[K:bass] x6 | x8 | z A,F[GB] [FA]4 | x8 | z A, z ^G, z =G,B[Gc] | x8 | %13
 z[K:bass] [B,,G,] z [A,,F,][K:treble] [DB]4 | x8 | x2[K:bass] x6 |] %16

